dist/svg/calendar-empty.svg

<!-- Generated by Trend Micro Style Portal -->
<svg version="1.1" xmlns="http://www.w3.org/2000/svg" width="16" height="16" viewBox="0 0 16 16">
  <title>calendar-empty</title>
  <path fill="rgb(34,34,34)" d="M16 2v13c-0 0.552-0.448 1-1 1h-14c-0.552-0-1-0.448-1-1v-13c0-0.552 0.448-1 1-1h2v-1h3v1h4v-1h3v1h2c0.552 0 1 0.448 1 1v0zM11 3h1v-2h-1zM4 3h1v-2h-1zM15 4h-14v11h14z"></path>
</svg>

<svg width="16" height="16" viewBox="0 0 16 16" fill="rgb(34, 34, 34)" xmlns="http://www.w3.org/2000/svg"><title>calendar-empty</title><path d="M16 2V15C16 15.552 15.552 16 15 16H1C0.448 16 0 15.552 0 15V2C0 1.448 0.448 1 1 1H3V0H6V1H10V0H13V1H15C15.552 1 16 1.448 16 2ZM11 3H12V1H11V3ZM4 3H5V1H4V3ZM15 4H1V15H15V4Z" fill="rgb(34, 34, 34)" fill-opacity="1.00"/></svg>
